X: 1938
T: Tripping it Lightly
B: australian traditional tunes wiki
M:4/4
R: Set Tune
Q: 1/4=100
K:D
V:1 
(3FGB |"D"A>f e>dA2A2|"Em"B>g f>eB2B2|"A7"c>g (3ege B2c2|"D"d>c d>e A2 (3FGB|
A>f e>dA2A2|"Em"B>g f>eB2B2|"A7"c>g f>e B2c2|"D"d>A d>Ad4||
f>e f>ef2A2|"G"B2d2"D"A4|f>e f>ef2d2|"A7"c2d2e4|
g>f g>fg2e2|"D"f>e f>ef2d2|"Em"e>d e>fe2 (3Bcd|"A7"c2d2e4||
"D"f>e f>ef2A2|"G"B2d2"D"A4|(3fff f>ef2d2|"Em"g2f2"E7"B4|
"A7"(3ggg g>fg2e2|"D"(3fff f>ef2A>B|"A7"(3cec B>A g>f e>c|"D"d2"G"d2"D"d2||
% abcbook-tune_id 6342d5be6f7bd9b9a401f1a7


% abcbook-boost 0
% abcbook-tablature 
% abcbook-transpose 
% abcbook-lastupdated 1665324488988
% abcbook-soundfonts 
% abcbook-repeats 1
% NFF Book 2009

